Numix-Circle/48x48/apps/steam_icon_332970.svg

<?xml version="1.0" encoding="UTF-8" standalone="no"?>
<svg
   xmlns:dc="http://purl.org/dc/elements/1.1/"
   xmlns:cc="http://creativecommons.org/ns#"
   xmlns:rdf="http://www.w3.org/1999/02/22-rdf-syntax-ns#"
   xmlns:svg="http://www.w3.org/2000/svg"
   xmlns="http://www.w3.org/2000/svg"
   xmlns:xlink="http://www.w3.org/1999/xlink"
   xmlns:sodipodi="http://sodipodi.sourceforge.net/DTD/sodipodi-0.dtd"
   xmlns:inkscape="http://www.inkscape.org/namespaces/inkscape"
   viewBox="0 0 48 48"
   id="svg2"
   version="1.1"
   inkscape:version="0.91 r13725"
   sodipodi:docname="steam_icon_332970.svg"
   inkscape:export-filename="/home/ismael/Imágenes/icon.png"
   inkscape:export-xdpi="245.12"
   inkscape:export-ydpi="245.12">
  <metadata
     id="metadata81">
    <rdf:RDF>
      <cc:Work
         rdf:about="">
        <dc:format>image/svg+xml</dc:format>
        <dc:type
           rdf:resource="http://purl.org/dc/dcmitype/StillImage" />
      </cc:Work>
    </rdf:RDF>
  </metadata>
  <sodipodi:namedview
     pagecolor="#ffffff"
     bordercolor="#666666"
     borderopacity="1"
     objecttolerance="10"
     gridtolerance="10"
     guidetolerance="10"
     inkscape:pageopacity="0"
     inkscape:pageshadow="2"
     inkscape:window-width="1366"
     inkscape:window-height="713"
     id="namedview79"
     showgrid="true"
     inkscape:snap-object-midpoints="true"
     inkscape:snap-text-baseline="true"
     inkscape:object-nodes="true"
     inkscape:snap-intersection-paths="true"
     inkscape:object-paths="true"
     inkscape:snap-midpoints="true"
     inkscape:snap-smooth-nodes="true"
     inkscape:zoom="12.787234"
     inkscape:cx="24.499"
     inkscape:cy="23.5"
     inkscape:window-x="0"
     inkscape:window-y="28"
     inkscape:window-maximized="1"
     inkscape:current-layer="svg2"
     showguides="false"
     inkscape:snap-bbox="true"
     inkscape:snap-bbox-edge-midpoints="true"
     inkscape:bbox-nodes="true">
    <inkscape:grid
       type="xygrid"
       id="grid4209" />
  </sodipodi:namedview>
  <defs
     id="defs4">
    <linearGradient
       inkscape:collect="always"
       id="linearGradient4520">
      <stop
         style="stop-color:#ffcc00;stop-opacity:1;"
         offset="0"
         id="stop4522" />
      <stop
         style="stop-color:#ffd015;stop-opacity:1"
         offset="1"
         id="stop4524" />
    </linearGradient>
    <linearGradient
       inkscape:collect="always"
       xlink:href="#linearGradient4520"
       id="linearGradient4526"
       x1="24"
       y1="47"
       x2="24"
       y2="1"
       gradientUnits="userSpaceOnUse" />
  </defs>
  <g
     id="g21">
    <path
       d="m 36.31 5 c 5.859 4.062 9.688 10.831 9.688 18.5 c 0 12.426 -10.07 22.5 -22.5 22.5 c -7.669 0 -14.438 -3.828 -18.5 -9.688 c 1.037 1.822 2.306 3.499 3.781 4.969 c 4.085 3.712 9.514 5.969 15.469 5.969 c 12.703 0 23 -10.298 23 -23 c 0 -5.954 -2.256 -11.384 -5.969 -15.469 c -1.469 -1.475 -3.147 -2.744 -4.969 -3.781 z m 4.969 3.781 c 3.854 4.113 6.219 9.637 6.219 15.719 c 0 12.703 -10.297 23 -23 23 c -6.081 0 -11.606 -2.364 -15.719 -6.219 c 4.16 4.144 9.883 6.719 16.219 6.719 c 12.703 0 23 -10.298 23 -23 c 0 -6.335 -2.575 -12.06 -6.719 -16.219 z"
       opacity="0.05"
       id="path23" />
    <path
       d="m 41.28 8.781 c 3.712 4.085 5.969 9.514 5.969 15.469 c 0 12.703 -10.297 23 -23 23 c -5.954 0 -11.384 -2.256 -15.469 -5.969 c 4.113 3.854 9.637 6.219 15.719 6.219 c 12.703 0 23 -10.298 23 -23 c 0 -6.081 -2.364 -11.606 -6.219 -15.719 z"
       opacity="0.1"
       id="path25" />
    <path
       d="m 31.25 2.375 c 8.615 3.154 14.75 11.417 14.75 21.13 c 0 12.426 -10.07 22.5 -22.5 22.5 c -9.708 0 -17.971 -6.135 -21.12 -14.75 a 23 23 0 0 0 44.875 -7 a 23 23 0 0 0 -16 -21.875 z"
       opacity="0.2"
       id="path27" />
  </g>
  <g
     id="g29"
     style="fill:#ffcc00">
    <path
       d="m 24 1 c 12.703 0 23 10.297 23 23 c 0 12.703 -10.297 23 -23 23 -12.703 0 -23 -10.297 -23 -23 0 -12.703 10.297 -23 23 -23 z"
       fill="url(#linearGradient3764)"
       fill-opacity="1"
       id="path31"
       style="fill:url(#linearGradient4526)" />
  </g>
  <g
     id="g33" />
  <g
     id="g75">
    <path
       d="m 40.03 7.531 c 3.712 4.084 5.969 9.514 5.969 15.469 0 12.703 -10.297 23 -23 23 c -5.954 0 -11.384 -2.256 -15.469 -5.969 4.178 4.291 10.01 6.969 16.469 6.969 c 12.703 0 23 -10.298 23 -23 0 -6.462 -2.677 -12.291 -6.969 -16.469 z"
       opacity="0.1"
       id="path77" />
  </g>
  <g
     id="g4282"
     transform="translate(1.0000001,1)"
     style="fill:#000000;opacity:0.1">
    <path
       style="fill:#000000;fill-rule:evenodd;stroke:none;stroke-width:0.79951328px;stroke-linecap:butt;stroke-linejoin:miter;stroke-opacity:1"
       d="m 15.006044,31 c 0,0 -1.882062,-5.929082 -2,-9 -0.09045,-2.355286 1,-7 1,-7 0,0 2.783759,-4.19761 5,-5 3.46188,-1.2533733 7.740003,-0.7111324 11,1 2.305166,1.209953 5,6 5,6 l 0,7 -5,13 -8,0 z"
       id="path4284"
       inkscape:connector-curvature="0"
       sodipodi:nodetypes="cacaaccccc" />
    <path
       sodipodi:nodetypes="ccccccc"
       inkscape:connector-curvature="0"
       id="path4304"
       d="M 23,37 23.993956,33 29,26 l 4,0 1,3 -2,8 z"
       style="fill:#000000;fill-opacity:1;fill-rule:evenodd;stroke:none;stroke-width:1px;stroke-linecap:butt;stroke-linejoin:miter;stroke-opacity:1" />
  </g>
  <g
     id="g4269">
    <path
       sodipodi:nodetypes="cacaaccccc"
       inkscape:connector-curvature="0"
       id="path4403"
       d="m 15.006044,31 c 0,0 -1.882062,-5.929082 -2,-9 -0.09045,-2.355286 1,-7 1,-7 0,0 2.783759,-4.19761 5,-5 3.46188,-1.2533733 7.740003,-0.7111324 11,1 2.305166,1.209953 5,6 5,6 l 0,7 -5,13 -8,0 z"
       style="fill:#93aca7;fill-rule:evenodd;stroke:none;stroke-width:0.79951328px;stroke-linecap:butt;stroke-linejoin:miter;stroke-opacity:1" />
    <path
       sodipodi:nodetypes="cscsccac"
       inkscape:connector-curvature="0"
       id="path4466"
       d="M 23.147909,9.3144531 C 21.71687,9.3125014 20.303536,9.529985 19.005331,10 c -2.216241,0.80239 -5,5 -5,5 0,0 -1.09045,4.644714 -1,7 0.117938,3.070918 2,9 2,9 l 3.818359,3.271484 c 0,0 -0.979028,-13.856361 1.179688,-20.271484 0.5999,-1.782741 3.144531,-4.6855469 3.144531,-4.6855469 z"
       style="opacity:0.2;fill:#f9f9f9;fill-rule:evenodd;stroke:none;stroke-width:1px;stroke-linecap:butt;stroke-linejoin:miter;stroke-opacity:1" />
    <path
       sodipodi:nodetypes="ccccccccccc"
       inkscape:connector-curvature="0"
       id="path4245"
       d="m 16,23 3.75,0.75 3.75,0.75 3.75,0.75 L 31,26 33,25 35,24 35.006,21 32,22 21.5,18.5 Z"
       style="fill:#6f918a;fill-opacity:1;fill-rule:evenodd;stroke:none;stroke-width:1px;stroke-linecap:butt;stroke-linejoin:miter;stroke-opacity:1" />
    <path
       sodipodi:nodetypes="ccccc"
       inkscape:connector-curvature="0"
       id="path4405"
       d="m 21.006044,21 0.997334,2 7.072632,1.157227 L 29.003378,22 Z"
       style="fill:#57e0ff;fill-opacity:1;fill-rule:evenodd;stroke:none;stroke-width:1px;stroke-linecap:butt;stroke-linejoin:miter;stroke-opacity:1" />
    <path
       inkscape:connector-curvature="0"
       id="path4415"
       d="M 15.006044,31 16,23 l 3,6 8,2 -5,6 z"
       style="fill:#536c67;fill-opacity:1;fill-rule:evenodd;stroke:none;stroke-width:1px;stroke-linecap:butt;stroke-linejoin:miter;stroke-opacity:1"
       sodipodi:nodetypes="cccccc" />
    <path
       style="fill:#6f918a;fill-opacity:1;fill-rule:evenodd;stroke:none;stroke-width:1px;stroke-linecap:butt;stroke-linejoin:miter;stroke-opacity:1"
       d="m 21,19 8.003378,1 3.002666,0 L 35,20 35,17 34,18 31,18 29,18 21.5,16.5 17,17 15.140186,13.455358 14,15 l 2,6 z"
       id="path4265"
       inkscape:connector-curvature="0"
       sodipodi:nodetypes="cccccccccccccc" />
    <path
       sodipodi:nodetypes="cccccccccccccc"
       inkscape:connector-curvature="0"
       id="path4417"
       d="m 21,21 8.003378,1 3.002666,0 3,-1 L 35,18 34,20 32.006044,20 29,20 21.5,18.5 16,19 14,15 13.398627,18.032177 16,23 Z"
       style="fill:#536c67;fill-opacity:1;fill-rule:evenodd;stroke:none;stroke-width:1px;stroke-linecap:butt;stroke-linejoin:miter;stroke-opacity:1" />
    <path
       inkscape:export-ydpi="245"
       inkscape:export-xdpi="245"
       inkscape:export-filename="/home/ismael/Imágenes/icon.png"
       sodipodi:nodetypes="sscccss"
       inkscape:connector-curvature="0"
       id="path4451"
       d="M 23.147909,9.3144531 C 23.050918,9.3143208 28.763414,13.058791 30.003378,16 c 2.719306,6.450223 0,21 0,21 l 5.001953,-13 0,-7 c 0,0 -2.694834,-4.790047 -5,-6 C 27.967833,9.9305423 25.532974,9.3177059 23.147909,9.3144531 Z"
       style="opacity:0.3;fill:#000000;fill-rule:evenodd;stroke:none;stroke-width:1px;stroke-linecap:butt;stroke-linejoin:miter;stroke-opacity:1" />
    <path
       style="fill:#57e0ff;fill-opacity:1;fill-rule:evenodd;stroke:none;stroke-width:1px;stroke-linecap:butt;stroke-linejoin:miter;stroke-opacity:1"
       d="m 35.006044,21 -0.0027,2 -3,1 0.0027,-2 z"
       id="path4409"
       inkscape:connector-curvature="0"
       sodipodi:nodetypes="ccccc" />
    <path
       sodipodi:nodetypes="ccccccc"
       inkscape:connector-curvature="0"
       id="path4174"
       d="m 22,37 1,-4 4.993956,-7 4,0 1,3 L 23,37 Z"
       style="fill:#6f918a;fill-opacity:1;fill-rule:evenodd;stroke:none;stroke-width:1px;stroke-linecap:butt;stroke-linejoin:miter;stroke-opacity:1" />
    <path
       style="fill:#536c67;fill-opacity:1;fill-rule:evenodd;stroke:none;stroke-width:1px;stroke-linecap:butt;stroke-linejoin:miter;stroke-opacity:1"
       d="M 23,37 23.993956,33 29,26 l 4,0 1,3 -2,8 z"
       id="path4172"
       inkscape:connector-curvature="0"
       sodipodi:nodetypes="ccccccc" />
  </g>
</svg>

<svg xmlns="http://www.w3.org/2000/svg" viewBox="0 0 48 48">
 <defs>
  <linearGradient id="linearGradient4526" y1="47" x2="0" y2="1" gradientUnits="userSpaceOnUse">
   <stop style="stop-color:#fc0;stop-opacity:1"/>
   <stop offset="1" style="stop-color:#ffd015;stop-opacity:1"/>
  </linearGradient>
 </defs>
 <g>
  <path d="m 36.31 5 c 5.859 4.062 9.688 10.831 9.688 18.5 c 0 12.426 -10.07 22.5 -22.5 22.5 c -7.669 0 -14.438 -3.828 -18.5 -9.688 c 1.037 1.822 2.306 3.499 3.781 4.969 c 4.085 3.712 9.514 5.969 15.469 5.969 c 12.703 0 23 -10.298 23 -23 c 0 -5.954 -2.256 -11.384 -5.969 -15.469 c -1.469 -1.475 -3.147 -2.744 -4.969 -3.781 z m 4.969 3.781 c 3.854 4.113 6.219 9.637 6.219 15.719 c 0 12.703 -10.297 23 -23 23 c -6.081 0 -11.606 -2.364 -15.719 -6.219 c 4.16 4.144 9.883 6.719 16.219 6.719 c 12.703 0 23 -10.298 23 -23 c 0 -6.335 -2.575 -12.06 -6.719 -16.219 z" style="opacity:0.05"/>
  <path d="m 41.28 8.781 c 3.712 4.085 5.969 9.514 5.969 15.469 c 0 12.703 -10.297 23 -23 23 c -5.954 0 -11.384 -2.256 -15.469 -5.969 c 4.113 3.854 9.637 6.219 15.719 6.219 c 12.703 0 23 -10.298 23 -23 c 0 -6.081 -2.364 -11.606 -6.219 -15.719 z" style="opacity:0.1"/>
  <path d="m 31.25 2.375 c 8.615 3.154 14.75 11.417 14.75 21.13 c 0 12.426 -10.07 22.5 -22.5 22.5 c -9.708 0 -17.971 -6.135 -21.12 -14.75 a 23 23 0 0 0 44.875 -7 a 23 23 0 0 0 -16 -21.875 z" style="opacity:0.2"/>
 </g>
 <g style="fill:#fc0">
  <path d="m 24 1 c 12.703 0 23 10.297 23 23 c 0 12.703 -10.297 23 -23 23 -12.703 0 -23 -10.297 -23 -23 0 -12.703 10.297 -23 23 -23 z" style="fill:url(#linearGradient4526);fill-opacity:1"/>
 </g>
 <g>
  <path d="m 40.03 7.531 c 3.712 4.084 5.969 9.514 5.969 15.469 0 12.703 -10.297 23 -23 23 c -5.954 0 -11.384 -2.256 -15.469 -5.969 4.178 4.291 10.01 6.969 16.469 6.969 c 12.703 0 23 -10.298 23 -23 0 -6.462 -2.677 -12.291 -6.969 -16.469 z" style="opacity:0.1"/>
 </g>
 <g transform="translate(1.0000001,1)" style="fill:#000;opacity:0.1">
  <path d="m 15.01 31 c 0 0 -1.882 -5.929 -2 -9 -0.09 -2.355 1 -7 1 -7 0 0 2.784 -4.198 5 -5 3.462 -1.253 7.74 -0.711 11 1 2.305 1.21 5 6 5 6 l 0 7 -5 13 -8 0 z" style="stroke:none;fill-rule:evenodd"/>
  <path d="m 23 37 0.994 -4 5.01 -7 l 4 0 1 3 -2 8 z" style="fill-opacity:1;stroke:none;fill-rule:evenodd"/>
 </g>
 <g>
  <path d="m 15.01 31 c 0 0 -1.882 -5.929 -2 -9 -0.09 -2.355 1 -7 1 -7 0 0 2.784 -4.198 5 -5 3.462 -1.253 7.74 -0.711 11 1 2.305 1.21 5 6 5 6 l 0 7 -5 13 -8 0 z" style="fill:#93aca7;stroke:none;fill-rule:evenodd"/>
  <path d="m 23.15 9.314 c -1.431 -0.002 -2.844 0.216 -4.143 0.686 c -2.216 0.802 -5 5 -5 5 0 0 -1.09 4.645 -1 7 0.118 3.071 2 9 2 9 l 3.818 3.271 c 0 0 -0.979 -13.856 1.18 -20.271 0.6 -1.783 3.145 -4.686 3.145 -4.686 z" style="fill:#f9f9f9;opacity:0.2;stroke:none;fill-rule:evenodd"/>
  <path d="m 16,23 3.75,0.75 3.75,0.75 3.75,0.75 L 31,26 33,25 35,24 35.006,21 32,22 21.5,18.5 Z" style="fill:#6f918a;fill-opacity:1;stroke:none;fill-rule:evenodd"/>
  <path d="m 21.01 21 0.997 2 7.07 1.157 l -0.073 -2.157" style="fill:#57e0ff;fill-opacity:1;stroke:none;fill-rule:evenodd"/>
  <path d="m 15.01 31 0.994 -8 l 3 6 8 2 -5 6 z" style="fill:#536c67;fill-opacity:1;stroke:none;fill-rule:evenodd"/>
  <path d="m 21 19 8 1 3 0 l 2.994 0 0 -3 -1 1 -3 0 -2 0 -7.5 -1.5 -4.5 0.5 -1.86 -3.545 -1.14 1.545 l 2 6 z" style="fill:#6f918a;fill-opacity:1;stroke:none;fill-rule:evenodd"/>
  <path d="m 21 21 8 1 3 0 3 -1 l -0.006 -3 -1 2 -1.994 0 -3.01 0 -7.5 -1.5 -5.5 0.5 -2 -4 -0.601 3.03 2.601 4.968" style="fill:#536c67;fill-opacity:1;stroke:none;fill-rule:evenodd"/>
  <path d="m 23.15 9.314 c -0.097 0 5.616 3.744 6.855 6.686 c 2.719 6.45 0 21 0 21 l 5 -13 0 -7 c 0 0 -2.695 -4.79 -5 -6 c -2.037 -1.069 -4.472 -1.682 -6.857 -1.686" style="fill:#000;opacity:0.3;stroke:none;fill-rule:evenodd"/>
  <path d="m 35.01 21 -0.003 2 -3 1 0.003 -2 z" style="fill:#57e0ff;fill-opacity:1;stroke:none;fill-rule:evenodd"/>
  <path d="m 22 37 1 -4 4.994 -7 4 0 1 3 l -9.994 8" style="fill:#6f918a;fill-opacity:1;stroke:none;fill-rule:evenodd"/>
  <path d="m 23 37 0.994 -4 5.01 -7 l 4 0 1 3 -2 8 z" style="fill:#536c67;fill-opacity:1;stroke:none;fill-rule:evenodd"/>
 </g>
</svg>
